packages/elvis-assets-icons/icons/svg/src/full_battery.svg

<svg width="24" height="24" viewBox="0 0 24 24" fill="none" xmlns="http://www.w3.org/2000/svg">
<path fill-rule="evenodd" clip-rule="evenodd" d="M11.1292 9.81995L11.9989 3L7 13.18H9.87076L9.00114 20L14 9.81995L11.1292 9.81995Z" fill="black"/>
<path d="M6 5H3.20107C2.35234 5 1.53835 5.33706 0.938073 5.93707C0.337798 6.53708 0.000377083 7.35127 0 8.2V14.6C0 15.4487 0.337142 16.2626 0.937258 16.8627C1.53737 17.4629 2.35131 17.8 3.2 17.8H5.99161C5.99161 17.8 6.80625 17.8 6.80625 17C6.80625 16.2 5.99161 16.2 5.99161 16.2H3.2C2.77565 16.2 2.36869 16.0314 2.06863 15.7314C1.76857 15.4313 1.6 15.0243 1.6 14.6V8.2C1.60028 7.77562 1.76904 7.36871 2.06919 7.06869C2.36943 6.76859 2.77656 6.6 3.20107 6.6H6C6 6.6 6.80625 6.6 6.80625 5.8C6.80625 5 6 5 6 5Z" fill="black"/>
<path d="M15.3636 16.2H17.6C18.0243 16.2 18.4313 16.0314 18.7314 15.7314C19.0314 15.4313 19.2 15.0243 19.2 14.6V13.8C19.2 13.3582 19.5582 13 20 13H21.6C21.8122 13 22.0157 12.9157 22.1657 12.7657C22.3157 12.6157 22.4 12.4122 22.4 12.2V10.6C22.4 10.3878 22.3157 10.1843 22.1657 10.0343C22.0157 9.88429 21.8122 9.8 21.6 9.8H20C19.5582 9.8 19.2 9.44183 19.2 9V8.2C19.2 7.77565 19.0314 7.36869 18.7314 7.06863C18.4313 6.76857 18.0243 6.6 17.6 6.6H15.3897C15.3897 6.6 14.5 6.6 14.5 5.8C14.5 5 15.3897 5 15.3897 5H17.6C18.4487 5 19.2626 5.33714 19.8627 5.93726C20.4629 6.53737 20.8 7.35131 20.8 8.2H21.6C22.2365 8.2 22.847 8.45286 23.2971 8.90294C23.7471 9.35303 24 9.96348 24 10.6V12.2C24 12.8365 23.7471 13.447 23.2971 13.8971C22.847 14.3471 22.2365 14.6 21.6 14.6H20.8C20.8 15.4487 20.4629 16.2626 19.8627 16.8627C19.2626 17.4629 18.4487 17.8 17.6 17.8H15.3636C15.3636 17.8 14.5 17.8 14.5 17C14.5 16.2 15.3636 16.2 15.3636 16.2Z" fill="black"/>
</svg>

<svg width="24" height="24" fill="none" xmlns="http://www.w3.org/2000/svg"><path fill-rule="evenodd" clip-rule="evenodd" d="M11.13 9.82L11.998 3 7 13.18h2.87L9.002 20 14 9.82h-2.87z" fill="#000"/><path d="M6 5H3.201A3.201 3.201 0 000 8.2v6.4a3.2 3.2 0 003.2 3.2h2.792s.814 0 .814-.8-.814-.8-.814-.8H3.2a1.6 1.6 0 01-1.6-1.6V8.2a1.601 1.601 0 011.601-1.6H6s.806 0 .806-.8S6 5 6 5zM15.364 16.2H17.6a1.6 1.6 0 001.6-1.6v-.8a.8.8 0 01.8-.8h1.6a.8.8 0 00.8-.8v-1.6a.8.8 0 00-.8-.8H20a.8.8 0 01-.8-.8v-.8a1.6 1.6 0 00-1.6-1.6h-2.21s-.89 0-.89-.8.89-.8.89-.8h2.21a3.2 3.2 0 013.2 3.2h.8a2.4 2.4 0 012.4 2.4v1.6a2.4 2.4 0 01-2.4 2.4h-.8a3.2 3.2 0 01-3.2 3.2h-2.236s-.864 0-.864-.8.864-.8.864-.8z" fill="#000"/></svg>
